X:5107
T:The Pike In The Bog-Hole
M:6/8
R:Jig
L:1/8
Q:180
C:Aidan Crossey
K:EDor
|:E B/B/B E B/B/B|ABc dAF|E B/B/B E B/B/B|ABc d/d/dd|
E B/B/B E B/B/B|ABc dAF|GBA GAG|FGF E3:||
|:e B/B/B e B/B/B|efg fed|e B/B/B e B/B/B|efg afd|
g b/b/b f a/a/a|efg fed|e B/B/B BAG|FGF E3:||
